X: 25
T:Midnight on the Water
T: 
N:Luke Thomasson
N: 
B:Fiddler's Fakebook
B: 
D:David Bromberg - Midnight on the Water
D: 
M:3/4
M: 
L:1/8
L: 
K:D
K: 
| DE | F2 F2 FE | F2 F2 FE| F A3 AB| AFED DE |\ 
F2 d2 (3BdB | A3 F DE | F2 AF (3E/F/E/ D |1 D4 DE :|2 D4 (3ABc|| 
|d3 cde| dc BA Bc| d3 B AF| D4 d2|\ 
e e3 f2| e2 d2 e2|f a3 f|gfed Bc| 
d3 cde| dc BA Bc | d3 B AF | D4 DE |\ 
F2 d2 (3BdB | A3 F DE | F2 AF (3E/F/E/ D | D4 DE|>|
